X:1
T:Vray dieu
T:Vray dieu
T:Jean de Castro
T:Source : Livre de chansons à 3 parties---Paris---A.le Roy & R.Ballard---1575. Editor : André Vierendeels (29/09/15).
T:Notes : Original clefs : G2, C2, C3 Editorial accidentals above the staff 
C:Jean de Castro
%%score [ 1 2 3 ]
L:1/8
Q:1/4=100
M:2/2
K:F
V:1 treble nm="Superius" snm="S"
V:2 treble nm="Altus" snm="A"
V:3 treble-8 nm="Tenor" snm="T"
V:1
 z8 | z8 | F4 F2 G2 | A2 B2 c4- | c2 c2 B4 | A4 c4 | c2 B2 A4- | A2 G4 F2- | F2 E2 D4 | E4 c4 | %10
w: ||"Vray dieu" di-|soit u- ne|_ fil- let-|te. "Vray|dieu" di- soit|_ u- ne|_ fil- let-|te, "Vray|
 c3 B A4 | f4 f3 e | d2 c4 B2- | B2 A2 G4 | A4 z2 c2 | c4 c4 | d4 c4 | _e4 d4- | d4 c4- | %19
w: dieu" di- soit|u- ne fil-|let- te'u- ne|_ fil- let-|te.- "Don-|nez con-|fort à|mon grief|_ mal,|
 c2 B2 A2 G2 | A4 B4 | A4 A4 | c8 | z4 f4 | e4 d4 | c4 z2 B2 | A4 =B4 | c6 c2 |"^b" B2 A2 G4 | %29
w: _ à mon grief|mal, à|mon grief|mal,|je|ne puis|plus, je|ne puis|plus dor-|mir seu- let-|
 A2 A2 G2 F2- | F2 G4 A2 | =B4 c4- | c2 =BA B4 | c4 z2 c2 | B2 A2 c2 B2 | A2 A2 G4 | z8 | %37
w: te, je sens trop|_ bien qui|me faict|_ _ _ _|mal, le|sou- ve- nir de|mes a- mours,||
 z2 c4 B2- | B2 A2 c2 B2 | A2 G2 A4 | z ccB c2 c2 | d4 B4 | A2 c4 d2- | d2 e4 f2 | z2 f4 d2- | %45
w: le sou-|* ve- nir de|mes a- mours,|sans plus tar- der vou-|droy' sca-|voir quel' co-|* s'est ce,|quel' co-|
 d2 A4 c2- | c2 A2 G2 G2 | A2 c2 B2 c2 | d2 c2 B2 A2- | A2 G2 z2 d2 | c2 d2 e2 f2 | d2 c3 B/A/ B2 | %52
w: * s'est ce|_ qu'on dit tou-|jours, bai- ser n'est|rien sans au- tre'a-|* voir, bai-|ser n'est rien sans|au- tre'a- * * *|
 c4 z2 c2 | =B2 c4 d2- | d2 G4 c2- | c2 B2 c4 | z2 G2 d2 e2 | f2 ed c2 d2 | B4 B4 | A2 A2 G2 c2 | %60
w: voir, bai-|ser n'est rien|_ sans au-|* tre'a- voir,|bai- ser n'est|rien _ _ _ sans|au- tre'a-|voir, bai- ser n'est|
 B4 A4 | B4 G4 | !fermata!A8 |] %63
w: rien sans|au- tre'a-|voir".|
V:2
 F4 F2 E2 | D4 A4 | A3 G F2 E2 | F2 D2 C4 | G2 E2 D4 | F8 | C4 C2 D2 | E3 F D4- | D2 C2 =B,4 | %9
w: "Vray dieu" di-|soit u-|ne fil- let- te'u-|ne fil- let-|te, fil- let-|te.|"Vray dieu" di-|soit u- ne|_ fil- let-|
 C4 z4 | c4 c3 B | A3 G F4- | F2 G2 A2 D2 | E2 F3 E/D/ E2 | F8 | z4 A4 | A4 A4 | B8- | B4 G4 | %19
w: te,|"Vray dieu" di-|soit u- ne|_ fil- let- *||te.|"Don-|nez con-|fort|_ à|
 A4 D4 | ^F4 G4- | G4 ^F4 | z4 A4 | G4 F4 | G4 z2 F2- | F2 E4 D2 | ^F4 G4 | A8 | z8 | z2 F2 E2 C2 | %30
w: mon grief|mal, grief|_ mal,|je|ne puis|plus, je|_ ne puis|plus dor-|mir,||je sens trop|
 D4 E4 | D4 C4 | D8 | z2 F2 E2 C2 | D2 F2 E2 D2 | C2 F2 F2 E2 | F2 F2 E2 D2 | E2 F2 D2 D2 | %38
w: bien qui|me faict|mal,|le sou- ve-|nir de mes a-|mours, de mes a-|mours, le sou- ve-|nir de mes a-|
 F4 z2 G2 | ^F2 G4 F2 | z AGF G2 A2 | G2 F3 E/D/ E2 | F4 z2 A2 | =B4 c4 | d6 B2- | B2 F4 A2 | %46
w: mours, de|mes a- mours,|sans plus tar- der vou-|droy' sca- * * *|voir quel'|co- s'est|ce, quel|_ co- s'est|
 G2 F2 F2 E2 | F2 F2 G2 A2 | B2 G2 F4 | E4 D4 | z2 G2 G2 F2 | G2 E2 D2 D2 | A8 | z2 A2 G2 A2 | %54
w: ce qu'on dit tou-|jours, bai- ser n'est|rien sans au-|tre'a- voir,|bai- ser n'est|rien sans au- tre'a-|voir,|bai- ser n'est|
 B4 z2 G2 | G2 D2 E4- | E4 z2 G2 | F2 G2 A2 GF | G2 D2 D2 E2 | F4 z2 C2 | D2 E2 F4 | G2 F4 E2 | %62
w: rien sans|au- tre'a- voir,|_ bai-|ser n'est rien _ _|_ sans au- tre'a-|voir, bai-|ser n'est rien|sans au- tre'a-|
 !fermata!F8 |] %63
w: voir".|
V:3
 z8 | f4 f2 e2 | d6 c2 | F2 G2 A4 | G8 | F4 F2 G2 | A6 B2 | c2 c2 B4 | A2 c2 G4 |"^b" c2 c2 c3 B | %10
w: |"Vray dieu" di-|soit u-|ne fil- let-|te,|"Vray dieu" di-|soit u-|ne fil- let-|te, fil- let-|te. "Vray dieu" di-|
 A4 z2 f2 | f3 e d4- | d2 e2 f2 B2 | c8 | F8 | z4 f4 | f4 f4 | g8- |"^-natural" g4 e4 | f8 | d8- | %21
w: soit.- "Vray|dieu" di- soit|_ u- ne fil-|let-|te.|"Don-|nez con-|fort|_ à|mon|grief|
 d8 | c4 z2 f2 | e4 d4 | c4 B4 | A4 G4 | d4 G4 | z8 | z8 | F4 c2 A2 | B4 c4 | G4 A4 | G8 | z8 | %34
w: _|mal, je|ne puis|plus dor-|mir seu-|let- te,|||je sens trop|bien qui|me faict|mal,||
 z8 | z4 c4 | B2 A2 c2 B2 | A2 F2 G4 | d4 c2 G2 | d8 |"^-natural" f2 ed c2 A2 | B4 G4 | F4 f4 | %43
w: |le|sou- ve- nir de|mes a- mours,|de mes a-|mours,|sans plus tar- der vou-|droy' sca-|voir quel'|
 g4 a4 | b4 B4 | d4 f4 | c8 | z4 z2 c2 | B2 c2 d4 | c4 B4 | A2 G2 z4 | z4 G4 | F2 G2 A4 | %53
w: co- s'est|ce, qu'on-|dit tou-|jours|bai-|ser n'est rien|sans au-|tre'a- voir,|bai-|ser n'est rien,|
 z2 f2 e2 f2 | g4 c4 | G2 G2 c4 | z2 c2 B2 c2 | d2 cB A2 B2 | G4 G4 | F2 F2 c2 A2 | G4 d4 | B4 c4 | %62
w: bai- ser n'est|rien sans|au- tre'a- voir,|bai- ser n'est|rien _ _ _ sans|au- tre'a-|voir, bai- ser n'est|rien sans|au- tre'a-|
 !fermata!F8 |] %63
w: voir".|

